X:1
T:Tbilisi, 12.9.12.9 D
T:Tbilisi, 12.9.12.9 D
T:George Coles Stebbins, 1901
T:Public Domain Courtesy of the Cyber Hymnal™
C:George Coles Stebbins, 1901
Z:Public Domain
Z:Courtesy of the Cyber Hymnal™
%%score ( 1 2 ) ( 3 4 )
L:1/8
Q:1/4=80
M:6/8
K:G
V:1 treble 
V:2 treble 
V:3 bass 
V:4 bass 
V:1
 D/D/ | D[DG][DA] [GB][Gc][GB] | [FB][FA]>[F^G] [FA]2 [FA]/[FB]/ | [Fc]>[DF][DF] [DF][DE]D | %4
 [DB]3- [DB]2 D/D/ | D[DG][DA] [GB]>[FA][=FB] | [Ed][Ec]>[EB] [Ec]2 [EG]/[EA]/ | %7
 [DB]>[B,D][B,D] [CA][B,G]>[CF] | [B,G]3- [B,G]2 [DB]/[DB]/ | [Fd]>[FA][FA] [FA]G[FA] | %10
 [GB][EG]>[EA] [DB]2 [Gd]/[Gd]/ | [Fd][FA]>[FA] [G^c][Fd][Ge] | d3- [Ad]2 [Fc]/[Fc]/ | %13
 [GB]>[GB][GB] [GB][GA][=FB] | [Ed][Ec]>[EB] [Ec]2 [EG]/[EA]/ | [DB]>[B,D][B,D] [CA][B,G]>[CF] | %16
 [B,G]3- [B,G]2 |] %17
V:2
 D/D/ | D x5 | x6 | x5 D | x5 D/D/ | D x5 | x6 | x6 | x6 | x4 G x | x6 | x6 | F2 G x3 | x6 | x6 | %15
 x6 | x5 |] %17
V:3
 [G,B,]/[G,B,]/ | [G,B,][G,B,][G,C] [G,D][G,E][G,D] | [D,D][D,C]>[D,B,] [D,C]2 [D,C]/[D,B,]/ | %3
 [D,A,]>[D,C][D,C] [D,C][E,C][F,A,] | G,3- G,2 [G,B,]/[G,B,]/ | [G,B,][G,B,][G,C] [G,D]>[G,C]G, | %6
 [C,G,][C,G,]>[C,G,] [C,G,]2 [C,G,]/[C,G,]/ | [D,G,]>[D,G,][D,G,] [D,F,][D,G,]>[D,A,] | %8
 [G,,G,]3- [G,,G,]2 G,/G,/ | [D,A,]>[D,C][D,C] [D,C][D,B,][D,D] | %10
 [G,D][G,C]>[G,C] G,2 [G,B,]/[G,B,]/ | A,[A,D]>[A,D] [A,E][A,D][A,^C] | %12
 (DA,B, [D,C]2) [D,A,]/[D,D]/ | [G,D]>[G,D][G,D] [G,D][G,C]G, | %14
 [C,G,][C,G,]>[C,G,] [C,G,]2 [C,G,]/[C,G,]/ | [D,G,]>[D,G,][D,G,] [D,F,][D,G,]>[D,A,] | %16
 [G,,G,]3- [G,,G,]2 |] %17
V:4
 x | x6 | x6 | x6 | G,3- G,2 x | x5 G, | x6 | x6 | x5 G,/G,/ | x6 | x3 G,2 x | A, x5 | D,3- x3 | %13
 x5 G, | x6 | x6 | x5 |] %17

